X:1
T:Light Of The Seven
T: Bicameral Mind (Intermediate Piano Solo)
T: Westworld OST Season 1
T: 
T: Composed by Ramin Djawadi Piano arrangement by Nicolas Del Gallo Full playthrough and more at https://www.youtube.com/c/NDGmusic If you want to donate, please check out my patreon ☺ https://www.patreon.com/ndg 
C:Ramin Djawadi
%%score { ( 1 3 ) | ( 2 4 ) }
L:1/8
Q:1/4=64
M:4/4
K:B
V:1 treble nm="Piano" snm="Pno."
V:3 treble 
V:2 bass 
V:4 bass 
V:1
"^\n" !arpeggio!c6 !arpeggio!c2 | [Ee]4 [Dd]4 ||[K:E] [C,C]2 [F,F]2 [E,E]2 [D,D]2 | [E,E]2 [F,F]6 | %4
 [G,G]2 [E,E]2 [D,D]2 [F,F]2 | [C,C]8 | [C,C]2 [E,E]4 D2 | [F,F]2 [G,G]6 | [F,F]GAE =DA[F,-E]G- | %9
 [F,G]8 | FGAE =DG F2 | z4 z2 bc' ||[K:D] Bbcc' Bbcc' | Bbcc' Bbcc' | Bbcc' Bbcc' | Bbcc' Bbcc' | %16
 Bbcc' Bbcc' | Bbcc' Bbcc' | Bbcc' Bbcc' | Bbcc' B[Bb]B[Aa] | B[Bb]B[Aa] B[^Gb]B[Aa] | %21
 B[^G^g]B[Aa] B[Gg]B[Ff] | B[^G^g]B[Ff] B[Gg]B[Ff] | B[^G^g]B[Ff] B[Gg]B[Ff] | F2 F2 F2 F2 | %25
 [FBe]2 B2 [FB^d]2 B2 | [DGB]2 B2 [EABc]2 B2 | B2 B2 B2 B2 | B2 B2 B2 B2 | [FBe]2 B2 [FB^d]2 B2 | %30
 [DGB]2 B2 [DFAB]2 B2 | B2 B2 B2 B2 | B2 B2 B2 B2 | [FBe]2 B2 [FB^d]2 B2 | [ABdg]2 B2 [ABdf]2 B2 | %35
 [ABce]2 B2 B2 B2 || [F,E]f B2 [B,F]b [Bf]2 |[M:6/4] [B,G]f B2 [B,F]b [Bf]2 z f B2 | %38
[M:4/4] [F,E]b [Bf]2 [B,F]f B2 |[M:6/4] [B,A]b [Bf]2 [B,G]f B2 z b [Bf]2 | %40
[M:4/4] [F,E]f B2 [B,F]b [Bf]2 |[M:6/4] [B,G]f B2 [B,A]b [Bf]2 z z z2 | %42
[M:4/4] [E,B,]2 [B,E][B,^D] [F,E]2 A,B,- |[M:6/4] B,2 FG z2 AG z2 FE | %44
[M:4/4] [E,B,]2 [B,E][B,^D] [F,E]2 A,B,- | B,2 CD z2 EF | E,2 [E,=C]B, F,2 [A,E]^D | %47
[M:6/4] z2 [B,G]F z4 E4 |[M:6/8][Q:1/8=134] B,/D/F/^A/B B,/D/F/A/B | D/F/^A/BB,/ D/F/A<B | %50
 B,/D/F<G B,/D/F<G | B,/G,/D/FD/ G,/B,/D/E/C/D/ | G,/B,/D/E/F G,/B,/D/E/F | %53
[M:6/16] B,/C/D/E/ z/ D/ |[M:6/8] B,/D/F/^A/B B,/D/F/A/B/B,/ | D/F/^A<B D/F/A/BD/ | %56
 F,/B,/D/F/G F,/B,/D/F/G | B,/D/E/FG,/ B,/D/E/F/C/D/ | B,/D/F/^A/B B,/D/F/A/B/G,/ | %59
 D/F/^A<B D/F/A/BD/ | F,/B,/D/F/G F,/B,/D/F/G | B,/D/E/FG,/ B,/D/E/F/C/D/ | %62
 B,/D/F/^A/B B,/D/F/A/B/G,/ | D/F/^A<B D/F/A/BD/ | F,/B,/D/F/G F,/B,/D/F/G | %65
 B,/D/E/FG,/ B,/D/E/F/C/D/ | B,/D/F/^A/B B,/D/F/A/B/G,/ | D/F/^A<B D/F/A/BD/ | G,3 G,/D/E<F | %69
 F,/B,/D<G F,3 | F,6 |] %71
V:2
 !arpeggio![F,CF]6 !arpeggio![F,CF]2 | !arpeggio![B,FB]8 ||[K:E] [C,,,C,,]8- | [C,,,C,,]8- | %4
 [C,,,C,,]8- | [C,,,C,,]8 | [F,,,F,,]8- | [F,,,F,,]8 | !arpeggio![=D,,,=D,,A,,]8 | %9
 [=D,,,=D,,]4 [D,,,D,,]4 | [B,,,,B,,,F,]8 | [B,,,,B,,,]8 ||[K:D] B,,2 B,2 B,2 B,2 | B,2 B,2 D2 D2 | %14
 D2 D2 A,2 A,2 | B,,2 B,,2 E,2 E,2 | E,2 E,2 A,,2 A,,2 | B,,2 B,,2 F,2 F,2 | F,2 F,2 ^G,2 G,2 | %19
 A,8 | ^G,8 | ^G,8 | [D,,A,,F,]8- | [D,,A,,F,]8 | z8 | B,8 | B,8 | z8 | z8 | B,8 | B,8 | z8 | z8 | %33
 B,8 | z8 | z8 || [B,,,B,,]4 [E,,E,]4 |[M:6/4] [G,,-G,]4 [G,,G,]4 z4 |[M:4/4] [B,,,B,,]4 [E,,E,]4 | %39
[M:6/4] [G,,G,]8 z4 |[M:4/4] [B,,,B,,]4 [E,,E,]4 |[M:6/4] [G,,G,]4 [A,,,A,,]4 z4 | %42
[M:4/4] [B,,,B,,]4 [E,,E,]4 |[M:6/4] [G,,-D,-G,]4 [G,,D,F,]4 z4 |[M:4/4] [B,,,B,,]4 [E,,E,]4 | %45
 [G,,-D,-A,]4 [G,,D,G,]4 | [B,,,B,,]4 [E,,E,]4 |[M:6/4] [G,,G,]4 [A,,A,]4 [A,,A,]4 | %48
[M:6/8][K:treble+15] c6 |[K:bass] F,3 F,2- F,/F,/ | G,2- G,/F,/ G,2- G,/F,/ | E,3 E,3 | %52
 G,3 G,2- G,/F,/ |[M:6/16] F, z G,/ z/ |[M:6/8] [B,,,,B,,,]3 [B,,,B,,]3 | [G,,,G,,]6 | [A,,,A,,]6 | %57
 [E,,,E,,]6 | B,,,6 | G,,6 | A,,6 | E,,6 | G,,,6 | C,,6 | E,,3 D,,3 | C,,3 z z2 | B,,,6 | E,,6 | %68
 B,,,6 | B,,,6 | B,,,,6 |] %71
V:3
 x8 | x8 ||[K:E] G,8 | x8 | C8 | x8 | G,8 | C8 | x8 | x8 | x8 | x8 ||[K:D] x8 | x8 | x8 | x8 | x8 | %17
 x8 | x8 | x8 | x8 | x8 | x8 | x8 | x8 | x8 | x8 | x8 | x8 | x8 | x8 | x8 | x8 | x8 | x8 | x8 || %36
 x8 |[M:6/4] x12 |[M:4/4] x8 |[M:6/4] x12 |[M:4/4] x8 |[M:6/4] x12 |[M:4/4] x8 |[M:6/4] x12 | %44
[M:4/4] x8 | x8 | x8 |[M:6/4] x12 |[M:6/8] x11/2 B,/ | x6 | x6 | x6 | x6 |[M:6/16] x3 |[M:6/8] x6 | %55
 x6 | x6 | x6 | x6 | x6 | x6 | x6 | x6 | x6 | x6 | x6 | x6 | x6 | x6 | x6 | x6 |] %71
V:4
 x8 | x8 ||[K:E] x8 | x8 | x8 | x8 | x8 | x8 | x2 E,6 | x8 | z2 B,,4 B,,2- | B,,2 B,,4 x2 || %12
[K:D] [B,,,F,,]8 | [B,,F,]4 [B,,F,]4- | [B,,F,]4 [B,,F,]4 | B,,,4 [B,,,F,,]4- | [B,,,F,,]4 B,,,4 | %17
 B,,,4 [B,,,F,,]4- | [B,,,F,,]4 [E,,B,,]4 | [F,,C,]8 | [F,,C,]6 [E,,B,,]2- | [E,,B,,]8 | x8 | x8 | %24
 x8 | x8 | x8 | x8 | x8 | x8 | x8 | x8 | x8 | x8 | x8 | x8 || x8 |[M:6/4] x12 |[M:4/4] x8 | %39
[M:6/4] x12 |[M:4/4] x8 |[M:6/4] x12 |[M:4/4] x8 |[M:6/4] x12 |[M:4/4] x8 | x8 | x8 |[M:6/4] x12 | %48
[M:6/8][K:treble+15] x6 |[K:bass] x6 | x6 | x6 | x6 |[M:6/16] x3 |[M:6/8] x6 | x6 | x6 | x6 | %58
 B,,3 D,3 | E,3 F,3 | F,3 F,3 | F,3 z z2 | B,,3 F,3 | E,3 D,3 | B,,3 z z2 | x6 | B,,3 F,3 | %67
 E,3 D,3 | B,,3 z z2 | x6 | x6 |] %71

